X:1
T:Bonnie Dundee
M:6/8
L:1/4
K:C
 z2 E/2F/2| G3/2 A/2 G| G3/2 A/2 G| c3/2 B/2 A| G2 G/2F/2| E/2 G3/2 C|\
 E/2 G3/2 C| D3/2 E/2 D| D2 E/2F/2| G3/2 A/2 G| G3/2 A/2 G| c3/2 B/2 A|\
 G2 F| E/2 G3/2 C| D/2 F3/2 B,| C3/2 C/2 C| C2 G,| C3/2 C/2 C| C/2- F3/2 E|\
 D3/2 G,/2 G,| G,3| D3/2 D/2 D| D E F| F E D| E2 C/2D/2| E3/2 D/2 E|\
 F3/2 E/2 F| G3/2 F/2 G| A2 G/2F/2| E/2 G3/2 C| D/2 F3/2 B,| C3/2 C/2 C|\
 C2 z|
